X:1
T:Nineteenth of December
P:Nineteenth of December
C:Caledonian Country Dances 1754
R:Jig (8x32)
B:RSCDS 27-2
Z:Anselm Lingnau <anselm@strathspey.org>
M:6/8
L:1/8
K:A
e|"A"c2c "A/G#"cBA|"F#m"c2c "E"cBA|"A"Ace aec|"E7"B3-Bed|\
 "A"c2c "A/G#"cBA|"F#m"edc "E"cBA|
 "A"Ace "F#m"a2a|"E7"bag "A"a2:|\
B|"A"A2a g2a|c2B A2E|"D"FGA "Bm"d2c|"E"B3-B2 e|
 "A"e2c efg|"F#m"a2a a2g|"D"f2e "A"c2e|"Bm"f3 "E"e3|\
 "A"e2c efg|"F#m"a2a a2g|
 "D"f2e "A"c2e|"Bm"f3 "E"e>ef/g/|\
 "A"a2c e2f|c2B A2E|"Bm"FGA "E7"B2 G|"A"A3-A2|]
